static/images/onboarding/invitation-illustration.svg

<svg width="182" height="171" viewBox="0 0 182 171" fill="none" xmlns="http://www.w3.org/2000/svg">
<path d="M0 68.4579H181.14V165.008C181.14 165.671 181.009 166.328 180.756 166.94C180.502 167.553 180.13 168.11 179.661 168.579C179.192 169.048 178.635 169.42 178.023 169.673C177.41 169.927 176.753 170.058 176.09 170.058H5.05C3.71066 170.058 2.42617 169.526 1.47911 168.579C0.532052 167.632 0 166.347 0 165.008L0 68.4579Z" fill="#2E8EB8"/>
<path d="M0 68.458L87.52 2.03799C88.3942 1.36495 89.4666 1 90.5699 1C91.6733 1 92.7457 1.36495 93.62 2.03799L181.14 68.458H0Z" fill="#47A8D1"/>
<path fill-rule="evenodd" clip-rule="evenodd" d="M89.4076 95.3137C97.5898 95.3137 104.215 101.937 104.215 110.117C104.215 118.087 97.5898 124.71 89.4076 124.71C81.2518 124.71 74.7852 118.087 74.7852 110.117C74.7852 101.937 81.2518 95.3137 89.4076 95.3137Z" fill="#FFBF00"/>
<path fill-rule="evenodd" clip-rule="evenodd" d="M83.94 85.2861C80.7463 85.2861 78.1333 82.7793 78.0277 79.5863C78.0277 79.0322 78.0013 78.4252 78.0013 77.8183C78.0013 69.8227 81.2478 61.1675 90.9609 53.8844L99.6182 47.4193C104.211 44.0152 105.715 39.9251 105.715 35.4919C105.715 28.8685 100.806 22.4298 90.5914 22.4298C80.7463 22.4298 74.966 30.4254 74.966 38.3946V38.5265C74.966 41.8778 72.2474 44.5694 68.8953 44.4374L56.7012 44.0152C53.613 43.9097 51.1584 41.3764 51.0264 38.289C51.0264 37.7349 51 37.2071 51 36.6794C51 16.8092 65.7808 0 90.5914 0C118.121 0 131.898 16.4925 131.898 33.46C131.898 47.0763 125.59 56.3912 115.402 64.0438L108.962 68.7936C104.211 72.356 100.648 75.892 99.4071 81.064C98.7736 83.6237 96.319 85.2861 93.6795 85.2861H83.94Z" fill="#FFBF00"/>
<path d="M0 115.578H181.14V165.008C181.14 165.671 181.009 166.328 180.756 166.94C180.502 167.553 180.13 168.11 179.661 168.579C179.192 169.048 178.635 169.42 178.023 169.673C177.41 169.927 176.753 170.058 176.09 170.058H5.05C3.71066 170.058 2.42617 169.526 1.47911 168.579C0.532052 167.632 0 166.347 0 165.008L0 115.578Z" fill="#47A8D1"/>
<path d="M0 68.4579L64.44 109.778C65.0932 110.198 65.6343 110.772 66.0167 111.448C66.3991 112.124 66.6112 112.883 66.6348 113.66C66.6584 114.436 66.4929 115.207 66.1523 115.905C65.8117 116.603 65.3064 117.208 64.68 117.668L0 164.988V68.4579Z" fill="#5CB1D6"/>
<path d="M181.141 68.4579L116.701 109.778C116.048 110.198 115.507 110.772 115.124 111.448C114.742 112.124 114.53 112.883 114.506 113.66C114.483 114.436 114.648 115.207 114.989 115.905C115.329 116.603 115.834 117.208 116.461 117.668L181.141 164.988V68.4579Z" fill="#5CB1D6"/>
</svg>

<svg width="182" height="171" fill="none" xmlns="http://www.w3.org/2000/svg"><path d="M0 68.458h181.14v96.55a5.06 5.06 0 0 1-1.479 3.571 5.041 5.041 0 0 1-3.571 1.479H5.05a5.05 5.05 0 0 1-5.05-5.05v-96.55Z" fill="#2E8EB8"/><path d="m0 68.458 87.52-66.42a5 5 0 0 1 6.1 0l87.52 66.42H0Z" fill="#47A8D1"/><path fill-rule="evenodd" clip-rule="evenodd" d="M89.408 95.314c8.182 0 14.807 6.623 14.807 14.803 0 7.97-6.625 14.593-14.807 14.593-8.156 0-14.623-6.623-14.623-14.593 0-8.18 6.467-14.803 14.623-14.803ZM83.94 85.286a5.894 5.894 0 0 1-5.912-5.7c0-.554-.027-1.16-.027-1.768 0-7.995 3.247-16.65 12.96-23.934l8.657-6.465c4.593-3.404 6.097-7.494 6.097-11.927 0-6.623-4.909-13.062-15.124-13.062-9.845 0-15.625 7.995-15.625 15.965v.131c0 3.352-2.719 6.043-6.07 5.911L56.7 44.015c-3.088-.105-5.543-2.639-5.675-5.726 0-.554-.026-1.082-.026-1.61C51 16.81 65.78 0 90.591 0c27.53 0 41.307 16.492 41.307 33.46 0 13.616-6.308 22.931-16.496 30.584l-6.44 4.75c-4.751 3.562-8.314 7.098-9.555 12.27-.633 2.56-3.088 4.222-5.727 4.222h-9.74Z" fill="#FFBF00"/><path d="M0 115.578h181.14v49.43a5.06 5.06 0 0 1-1.479 3.571 5.041 5.041 0 0 1-3.571 1.479H5.05a5.05 5.05 0 0 1-5.05-5.05v-49.43Z" fill="#47A8D1"/><path d="m0 68.458 64.44 41.32a4.788 4.788 0 0 1 .24 7.89L0 164.988v-96.53ZM181.141 68.458l-64.44 41.32a4.796 4.796 0 0 0-2.195 3.882 4.792 4.792 0 0 0 1.955 4.008l64.68 47.32v-96.53Z" fill="#5CB1D6"/></svg>
